X: 189
T: Wangxiaoer ganji
L: 1/16
M: 2/4
K: F
f2> d2 f2 d c [I:setbarnb 1]| 
f2> d2 f2 d c | 
f2 d c A2 G A | 
c8 | 
z2 f2 A2 c2 | 
d2> c2 A2 G2 | 
F2 G c D2 F D | 
C8 | 
A2 A A G A G c | 
D2 F2 C2 C D | 
F2> F2 D2 F2 | 
G2> A2 c2 d2 | 
f2> d2 f d c2 | 
d2 d c D2 D F | 
G A G DC4 |]

@@@ Tune index: 9063
